X: 3588
T: Bill Burnette's
R: reel
M: 4/4
K: Adorian
gfed eA c2|Bc d2 gfed|eA A/A/A {e}dBGB|
geag eA g2|dB d2 gfed|eAcA BAGB||
cA A/A/A GEGA|BABd eA A/A/A|edea gfed|
cA A/A/A GEGA|BABd edef|fd g2 ge a2||

